X:52
T:Julia Clifford's
R:polka
D:Mary Bergin: Feadoga Stain 2
Z:id:hn-polka-52
M:2/4
L:1/8
K:D
Ad f/e/d/c/|dF A>d|cE G/B/G/B/|AD DF|Ad f/e/d/c/|dF A>d|cA GE|ED D2:|
|:ad d/e/d/B/|cb b>c'|bc c/B/c/B/|Aa a/b/a/f/|
ad d/e/d/B/|cb b>c'|bc cB/c/|1 ed d/e/f/g/:|2 ed d>B||
<end>
<start>
